src/svg/kitchen.svg

<svg width="21" height="20" viewBox="0 0 21 20" fill="none" xmlns="http://www.w3.org/2000/svg">
<path d="M9.59998 4.60003H19.5001V7.30006H9.59998V4.60003Z" fill="#9499A8"/>
<path d="M13.2 2.80002H15.9L19.5001 4.60003H9.59998L13.2 2.80002Z" fill="#9499A8"/>
<path d="M13.2 1H15.9V2.80002H13.2V1Z" fill="#9499A8"/>
<path fill-rule="evenodd" clip-rule="evenodd" d="M8.69994 9.10007H1.49988V13.6001H8.69994V9.10007ZM3.7499 10.9001C3.50137 10.9001 3.29989 11.1016 3.29989 11.3501C3.29989 11.5986 3.50137 11.8001 3.7499 11.8001H6.44992C6.69845 11.8001 6.89993 11.5986 6.89993 11.3501C6.89993 11.1016 6.69845 10.9001 6.44992 10.9001H3.7499Z" fill="#9499A8"/>
<path fill-rule="evenodd" clip-rule="evenodd" d="M8.69994 14.5001H1.49988V19.0002H8.69994V14.5001ZM3.7499 16.3001C3.50137 16.3001 3.29989 16.5016 3.29989 16.7501C3.29989 16.9987 3.50137 17.2001 3.7499 17.2001H6.44992C6.69845 17.2001 6.89993 16.9987 6.89993 16.7501C6.89993 16.5016 6.69845 16.3001 6.44992 16.3001H3.7499Z" fill="#9499A8"/>
<path fill-rule="evenodd" clip-rule="evenodd" d="M19.5001 9.10007H9.59998V19.0002H19.5001V9.10007ZM11.85 10.9001C11.6015 10.9001 11.4 11.1016 11.4 11.3501C11.4 11.5986 11.6015 11.8001 11.85 11.8001C12.0985 11.8001 12.3 11.5986 12.3 11.3501C12.3 11.1016 12.0985 10.9001 11.85 10.9001ZM12.3 13.6001C11.8029 13.6001 11.4 14.0031 11.4 14.5001V16.3001C11.4 16.7972 11.8029 17.2001 12.3 17.2001H16.8C17.2971 17.2001 17.7 16.7972 17.7 16.3001V14.5001C17.7 14.0031 17.2971 13.6001 16.8 13.6001H12.3ZM16.8 11.3501C16.8 11.1016 17.0015 10.9001 17.25 10.9001C17.4986 10.9001 17.7 11.1016 17.7 11.3501C17.7 11.5986 17.4986 11.8001 17.25 11.8001C17.0015 11.8001 16.8 11.5986 16.8 11.3501ZM14.55 10.9001C14.3015 10.9001 14.1 11.1016 14.1 11.3501C14.1 11.5986 14.3015 11.8001 14.55 11.8001C14.7986 11.8001 15 11.5986 15 11.3501C15 11.1016 14.7986 10.9001 14.55 10.9001Z" fill="#9499A8"/>
</svg>

<svg width="21" height="20" fill="none" xmlns="http://www.w3.org/2000/svg">
  <path d="M9.6 4.6h9.9v2.7H9.6V4.6ZM13.2 2.8h2.7l3.6 1.8H9.6l3.6-1.8ZM13.2 1h2.7v1.8h-2.7V1Z" fill="#9499A8"/>
  <path fill-rule="evenodd" clip-rule="evenodd" d="M8.7 9.1H1.5v4.5h7.2V9.1Zm-4.95 1.8a.45.45 0 0 0 0 .9h2.7a.45.45 0 0 0 0-.9h-2.7ZM8.7 14.5H1.5V19h7.2v-4.5Zm-4.95 1.8a.45.45 0 0 0 0 .9h2.7a.45.45 0 1 0 0-.9h-2.7ZM19.5 9.1H9.6V19h9.9V9.1Zm-7.65 1.8a.45.45 0 1 0 0 .9.45.45 0 0 0 0-.9Zm.45 2.7a.9.9 0 0 0-.9.9v1.8a.9.9 0 0 0 .9.9h4.5a.9.9 0 0 0 .9-.9v-1.8a.9.9 0 0 0-.9-.9h-4.5Zm4.5-2.25a.45.45 0 1 1 .9 0 .45.45 0 0 1-.9 0Zm-2.25-.45a.45.45 0 1 0 0 .9.45.45 0 0 0 0-.9Z" fill="#9499A8"/>
</svg>
